Pods/ProtonCore-UIFoundations/libraries/UIFoundations/Sources/Assets.xcassets/Images/IconSet/ic-arrow-down-circle-filled.imageset/ic-arrow-down-circle-filled.svg

<svg width="24" height="24" viewBox="0 0 24 24" fill="none" xmlns="http://www.w3.org/2000/svg">
<path fill-rule="evenodd" clip-rule="evenodd" d="M12 22.5C17.799 22.5 22.5 17.799 22.5 12C22.5 6.20101 17.799 1.5 12 1.5C6.20101 1.5 1.5 6.20101 1.5 12C1.5 17.799 6.20101 22.5 12 22.5ZM12.75 6.75C12.75 6.33579 12.4142 6 12 6C11.5858 6 11.25 6.33579 11.25 6.75V15.4393L8.78033 12.9697C8.48744 12.6768 8.01256 12.6768 7.71967 12.9697C7.42678 13.2626 7.42678 13.7374 7.71967 14.0303L11.2575 17.5682C11.6676 17.9782 12.3324 17.9782 12.7425 17.5682L16.2803 14.0303C16.5732 13.7374 16.5732 13.2626 16.2803 12.9697C15.9874 12.6768 15.5126 12.6768 15.2197 12.9697L12.75 15.4393V6.75Z" fill="#0C0C14"/>
</svg>

<svg xmlns="http://www.w3.org/2000/svg" width="24" height="24" viewBox="0 0 24 24">
  <g class="ic-arrow-down-circle-filled">
    <path fill-rule="evenodd" d="M12 22.5c5.799 0 10.5-4.701 10.5-10.5S17.799 1.5 12 1.5 1.5 6.201 1.5 12 6.201 22.5 12 22.5Zm.75-15.75a.75.75 0 0 0-1.5 0v8.69l-2.47-2.47a.75.75 0 0 0-1.06 1.06l3.538 3.538c.41.41 1.074.41 1.485 0l3.537-3.538a.75.75 0 1 0-1.06-1.06l-2.47 2.47V6.75Z" class="Icon"/>
  </g>
</svg>
